X:132
T: Die Schlangenkoechin
N: Q2079W
O: Nord - Amerika, USA, Carolina
N: Amerikanische Fassung der Ballade.
N: Zweite und vierte Zeile = Refrain.
R: Ballade, Mord; Reigen - Tanz, antiphonal
M: 6/8
L: 1/16
K: G
G2 | B2B2B2B4A2 | G2G2A2G4
G2 | B2d2d2d4d2 | c2A2A2B4
d2 | g2f2e2e2d2Bd | d2c2A2G4
GG | A2B2c2c2A2AA | A2A2F2G4

@@@ Tune index: 1187
